src/topics/icons/framed.svg

<svg height="266" viewBox="0 0 256 266" width="256" xmlns="http://www.w3.org/2000/svg"><g fill="#d35052" fill-rule="evenodd"><path d="m28.7582762 265.429569c-15.3373701 0-27.81489498-12.477525-27.81489498-27.816309 0-15.338785 12.47752488-27.81631 27.81489498-27.81631 15.3387846 0 27.8163094 12.477525 27.8163094 27.81631 0 15.338784-12.4775248 27.816309-27.8163094 27.816309zm0-44.317702c-9.0986077 0-16.4999779 7.401371-16.4999779 16.501393s7.4013702 16.501392 16.4999779 16.501392c9.1000221 0 16.5013923-7.40137 16.5013923-16.501392s-7.4013702-16.501393-16.5013923-16.501393z"/><path d="m128.707182 0c-15.33737 0-27.816309 12.4775249-27.816309 27.8163094 0 8.5936796 3.920619 16.2864088 10.063204 21.3922652l-66.5005963 131.6363314c-1.4087072 2.789127-.2899448 6.192088 2.4977679 7.600796.8189171.412994 1.6887514.609591 2.5472707.609591 2.0663868 0 4.0578122-1.137149 5.0535249-3.107359l66.4015908-131.4369064c2.463824.7170829 5.060597 1.1215912 7.753547 1.1215912 15.33737 0 27.81631-12.4789392 27.81631-27.8163094 0-15.3387845-12.47894-27.8163094-27.81631-27.8163094zm0 44.3177017c-9.098607 0-16.501392-7.4027846-16.501392-16.5013923 0-9.1000221 7.402785-16.5013923 16.501392-16.5013923 9.098608 0 16.501393 7.4013702 16.501393 16.5013923 0 9.0986077-7.402785 16.5013923-16.501393 16.5013923z"/><path d="m228.183691 209.325967c-2.70568 0-5.315183.405923-7.790321 1.130077l-68.27421-131.9644639c-1.43558-2.7763978-4.849856-3.8612155-7.62484-2.4256353-2.774983 1.4355801-3.861215 4.8484419-2.425635 7.6234254l68.335028 132.0832708c-1.780685 1.485083-3.356288 3.202121-4.721149 5.081812l-77.965437-37.148287-51.0232043 25.263381c-2.800442 1.386077-3.9460774 4.780552-2.56 7.580994 1.3860773 2.800442 4.7805524 3.944663 7.5809944 2.56l46.0969729-22.825016 73.217414 34.886718c-.422895 1.92495-.660508 3.919205-.660508 5.970033 0 15.33737 12.477524 27.81631 27.814895 27.81631 15.338784 0 27.816309-12.47894 27.816309-27.81631 0-15.338784-12.477525-27.816309-27.816309-27.816309zm0 44.317702c-9.098608 0-16.499978-7.402785-16.499978-16.501393 0-9.100022 7.40137-16.501392 16.499978-16.501392 9.100022 0 16.501392 7.40137 16.501392 16.501392 0 9.098608-7.40137 16.501393-16.501392 16.501393z"/></g></svg>

<?xml version="1.0" encoding="UTF-8" standalone="no"?>
<svg width="256px" height="266px" viewBox="0 0 256 266" version="1.1" xmlns="http://www.w3.org/2000/svg" xmlns:xlink="http://www.w3.org/1999/xlink">
    <defs></defs>
    <g stroke="none" stroke-width="1" fill="none" fill-rule="evenodd">
        <g fill="#D35052">
            <path d="M28.7582762,265.429569 C13.4209061,265.429569 0.943381215,252.952044 0.943381215,237.61326 C0.943381215,222.274475 13.4209061,209.79695 28.7582762,209.79695 C44.0970608,209.79695 56.5745856,222.274475 56.5745856,237.61326 C56.5745856,252.952044 44.0970608,265.429569 28.7582762,265.429569 L28.7582762,265.429569 Z M28.7582762,221.111867 C19.6596685,221.111867 12.2582983,228.513238 12.2582983,237.61326 C12.2582983,246.713282 19.6596685,254.114652 28.7582762,254.114652 C37.8582983,254.114652 45.2596685,246.713282 45.2596685,237.61326 C45.2596685,228.513238 37.8582983,221.111867 28.7582762,221.111867 L28.7582762,221.111867 Z"></path>
            <path d="M128.707182,0 C113.369812,0 100.890873,12.4775249 100.890873,27.8163094 C100.890873,36.409989 104.811492,44.1027182 110.954077,49.2085746 L44.4534807,180.844906 C43.0447735,183.634033 44.1635359,187.036994 46.9512486,188.445702 C47.7701657,188.858696 48.64,189.055293 49.4985193,189.055293 C51.5649061,189.055293 53.5563315,187.918144 54.5520442,185.947934 L120.953635,54.5110276 C123.417459,55.2281105 126.014232,55.6326188 128.707182,55.6326188 C144.044552,55.6326188 156.523492,43.1536796 156.523492,27.8163094 C156.523492,12.4775249 144.044552,0 128.707182,0 L128.707182,0 Z M128.707182,44.3177017 C119.608575,44.3177017 112.20579,36.9149171 112.20579,27.8163094 C112.20579,18.7162873 119.608575,11.3149171 128.707182,11.3149171 C137.80579,11.3149171 145.208575,18.7162873 145.208575,27.8163094 C145.208575,36.9149171 137.80579,44.3177017 128.707182,44.3177017 L128.707182,44.3177017 Z"></path>
            <path d="M228.183691,209.325967 C225.478011,209.325967 222.868508,209.73189 220.39337,210.456044 L152.11916,78.4915801 C150.68358,75.7151823 147.269304,74.6303646 144.49432,76.0659448 C141.719337,77.5015249 140.633105,80.9143867 142.068685,83.6893702 L210.403713,215.772641 C208.623028,217.257724 207.047425,218.974762 205.682564,220.854453 L127.717127,183.706166 L76.6939227,208.969547 C73.8934807,210.355624 72.7478453,213.750099 74.1339227,216.550541 C75.52,219.350983 78.9144751,220.495204 81.7149171,219.110541 L127.81189,196.285525 L201.029304,231.172243 C200.606409,233.097193 200.368796,235.091448 200.368796,237.142276 C200.368796,252.479646 212.84632,264.958586 228.183691,264.958586 C243.522475,264.958586 256,252.479646 256,237.142276 C256,221.803492 243.522475,209.325967 228.183691,209.325967 L228.183691,209.325967 Z M228.183691,253.643669 C219.085083,253.643669 211.683713,246.240884 211.683713,237.142276 C211.683713,228.042254 219.085083,220.640884 228.183691,220.640884 C237.283713,220.640884 244.685083,228.042254 244.685083,237.142276 C244.685083,246.240884 237.283713,253.643669 228.183691,253.643669 L228.183691,253.643669 Z"></path>
        </g>
    </g>
</svg>
